icons/crisis_response_center_person.svg

<svg width="48" height="48" viewBox="0 0 48 48" fill="none" xmlns="http://www.w3.org/2000/svg">
<rect width="48" height="48" fill="white"/>
<path fill-rule="evenodd" clip-rule="evenodd" d="M6 6H23V18H6V6ZM15.5 15C15.5 15.5523 15.0523 16 14.5 16C13.9477 16 13.5 15.5523 13.5 15C13.5 14.4477 13.9477 14 14.5 14C15.0523 14 15.5 14.4477 15.5 15ZM14.5 8C13.9477 8 13.5 8.44772 13.5 9V12C13.5 12.5523 13.9477 13 14.5 13C15.0523 13 15.5 12.5523 15.5 12V9C15.5 8.44772 15.0523 8 14.5 8Z" fill="black"/>
<path fill-rule="evenodd" clip-rule="evenodd" d="M25 6H42V18H25V6ZM40.2071 9.20711L38.7929 7.79289L34.5 12.0858L32 9.58579L28.2929 13.2929L29.7071 14.7071L32 12.4142L34.5 14.9142L40.2071 9.20711Z" fill="black"/>
<path fill-rule="evenodd" clip-rule="evenodd" d="M6 20V32H18.3414C18.1203 31.3744 18 30.7013 18 30C18 27.027 20.1623 24.559 23 24.083V20H6ZM9 23V25H11V23H9ZM9 29V27H11V29H9ZM13 23V25H15V23H13ZM13 29V27H15V29H13ZM17 23V25H19V23H17Z" fill="black"/>
<path fill-rule="evenodd" clip-rule="evenodd" d="M29.6586 32C29.8797 31.3744 30 30.7013 30 30C30 27.027 27.8377 24.559 25 24.083V20H42V32H29.6586ZM39 25H32C31.4477 25 31 24.5523 31 24C31 23.4477 31.4477 23 32 23H39C39.5523 23 40 23.4477 40 24C40 24.5523 39.5523 25 39 25ZM33 29C32.4477 29 32 28.5523 32 28C32 27.4477 32.4477 27 33 27H39C39.5523 27 40 27.4477 40 28C40 28.5523 39.5523 29 39 29H33Z" fill="black"/>
<path fill-rule="evenodd" clip-rule="evenodd" d="M17 37.5455C17 35.8527 21.6637 35 24 35C26.3363 35 31 35.8527 31 37.5455V41H17V37.5455ZM18.7789 38.1715C18.7789 38.1715 18.7838 38.1656 18.7977 38.1541C18.7866 38.1658 18.7789 38.1715 18.7789 38.1715ZM19 38.0205C19.2465 37.8809 19.6399 37.7164 20.1833 37.5581C21.4501 37.1891 23.0111 37 24 37C24.9889 37 26.5499 37.1891 27.8167 37.5581C28.3601 37.7164 28.7535 37.8809 29 38.0205V39H19V38.0205ZM29.2192 38.1703L29.2159 38.1675C29.2141 38.1659 29.2119 38.1639 29.2094 38.1614C29.2073 38.1593 29.2049 38.1568 29.2023 38.1541C29.2162 38.1656 29.2211 38.1715 29.2211 38.1715L29.2192 38.1703Z" fill="black"/>
<path fill-rule="evenodd" clip-rule="evenodd" d="M28 30C28 32.2091 26.2091 34 24 34C21.7909 34 20 32.2091 20 30C20 27.7909 21.7909 26 24 26C26.2091 26 28 27.7909 28 30ZM26 30C26 31.1046 25.1046 32 24 32C22.8954 32 22 31.1046 22 30C22 28.8954 22.8954 28 24 28C25.1046 28 26 28.8954 26 30Z" fill="black"/>
</svg>

<svg
  xmlns="http://www.w3.org/2000/svg"
  width="24"
  height="24"
  viewBox="0 0 24 24"
  fill="none"
  stroke="currentColor"
  stroke-width="2"
  stroke-linecap="round"
  stroke-linejoin="round"
>
  <rect width="48" height="48" />
  <path
    fill-rule="evenodd"
    d="M6 6h17v12H6zm9.5 9a1 1 0 1 1-2 0 1 1 0 0 1 2 0m-1-7a1 1 0 0 0-1 1v3a1 1 0 1 0 2 0V9a1 1 0 0 0-1-1"
    clip-rule="evenodd"
  />
  <path
    fill-rule="evenodd"
    d="M25 6h17v12H25zm15.207 3.207-1.414-1.414-4.293 4.293-2.5-2.5-3.707 3.707 1.414 1.414L32 12.414l2.5 2.5z"
    clip-rule="evenodd"
  />
  <path
    fill-rule="evenodd"
    d="M6 20v12h12.341A6.002 6.002 0 0 1 23 24.083V20zm3 3v2h2v-2zm0 6v-2h2v2zm4-6v2h2v-2zm0 6v-2h2v2zm4-6v2h2v-2z"
    clip-rule="evenodd"
  />
  <path
    fill-rule="evenodd"
    d="M29.659 32A6.002 6.002 0 0 0 25 24.083V20h17v12zM39 25h-7a1 1 0 1 1 0-2h7a1 1 0 1 1 0 2m-6 4a1 1 0 1 1 0-2h6a1 1 0 1 1 0 2z"
    clip-rule="evenodd"
  />
  <path
    fill-rule="evenodd"
    d="M17 37.546C17 35.853 21.664 35 24 35s7 .853 7 2.545V41H17zm1.779.626.019-.018q-.018.018-.02.017M19 38.02c.247-.14.64-.305 1.183-.463C21.45 37.19 23.011 37 24 37s2.55.19 3.817.558c.543.158.936.323 1.183.462V39H19zm10.22.15-.004-.004-.007-.006-.007-.007.02.017z"
    clip-rule="evenodd"
  />
  <path
    fill-rule="evenodd"
    d="M28 30a4 4 0 1 1-8 0 4 4 0 0 1 8 0m-2 0a2 2 0 1 1-4 0 2 2 0 0 1 4 0"
    clip-rule="evenodd"
  />
</svg>
